Newaita-dark/.places-mint/24/folder-tar.svg

<?xml version="1.0" encoding="UTF-8"?>
<svg xmlns="http://www.w3.org/2000/svg" xmlns:xlink="http://www.w3.org/1999/xlink" width="24px" height="24px" viewBox="0 0 24 24" version="1.1">
<defs>
<linearGradient id="linear0" gradientUnits="userSpaceOnUse" x1="254" y1="233.5" x2="254" y2="254.666672" gradientTransform="matrix(0.0468795,0,0,0.0468795,-0.0000028613,10.07909)">
<stop offset="0" style="stop-color:rgb(0%,0%,0%);stop-opacity:0.27451;"/>
<stop offset="1" style="stop-color:rgb(0%,0%,0%);stop-opacity:0;"/>
</linearGradient>
<radialGradient id="radial0" gradientUnits="userSpaceOnUse" cx="450.908936" cy="189.579361" fx="450.908936" fy="189.579361" r="21.166656" gradientTransform="matrix(0.000000130628,-0.0585994,-0.105479,-0.0000000761539,40.58641,47.696501)">
<stop offset="0" style="stop-color:rgb(0%,0%,0%);stop-opacity:0.313726;"/>
<stop offset="0.222222" style="stop-color:rgb(0%,0%,0%);stop-opacity:0.27451;"/>
<stop offset="1" style="stop-color:rgb(0%,0%,0%);stop-opacity:0;"/>
</radialGradient>
<radialGradient id="radial1" gradientUnits="userSpaceOnUse" cx="450.908936" cy="189.579361" fx="450.908936" fy="189.579361" r="21.166656" gradientTransform="matrix(-0.000000130628,0.0585994,0.105479,0.0000000761539,-16.771633,-5.645608)">
<stop offset="0" style="stop-color:rgb(0%,0%,0%);stop-opacity:0.313726;"/>
<stop offset="0.222222" style="stop-color:rgb(0%,0%,0%);stop-opacity:0.27451;"/>
<stop offset="1" style="stop-color:rgb(0%,0%,0%);stop-opacity:0;"/>
</radialGradient>
<radialGradient id="radial2" gradientUnits="userSpaceOnUse" cx="450.908936" cy="189.579361" fx="450.908936" fy="189.579361" r="21.166656" gradientTransform="matrix(-0.000000130628,-0.0585994,0.105479,-0.0000000761539,-16.771633,47.696501)">
<stop offset="0" style="stop-color:rgb(0%,0%,0%);stop-opacity:0.313726;"/>
<stop offset="0.222222" style="stop-color:rgb(0%,0%,0%);stop-opacity:0.27451;"/>
<stop offset="1" style="stop-color:rgb(0%,0%,0%);stop-opacity:0;"/>
</radialGradient>
<radialGradient id="radial3" gradientUnits="userSpaceOnUse" cx="450.908936" cy="189.579361" fx="450.908936" fy="189.579361" r="21.166656" gradientTransform="matrix(0.000000130628,0.0585994,-0.105479,0.0000000761539,40.586408,-5.645608)">
<stop offset="0" style="stop-color:rgb(0%,0%,0%);stop-opacity:0.313726;"/>
<stop offset="0.222222" style="stop-color:rgb(0%,0%,0%);stop-opacity:0.27451;"/>
<stop offset="1" style="stop-color:rgb(0%,0%,0%);stop-opacity:0;"/>
</radialGradient>
<linearGradient id="linear1" gradientUnits="userSpaceOnUse" x1="254" y1="-147.5" x2="254" y2="-31.083334" gradientTransform="matrix(0.0468795,0,0,0.0468795,0.000000937315,10.079086)">
<stop offset="0" style="stop-color:rgb(64.313728%,64.313728%,64.313728%);stop-opacity:0;"/>
<stop offset="1" style="stop-color:rgb(100%,100%,100%);stop-opacity:0.196078;"/>
</linearGradient>
<linearGradient id="linear2" gradientUnits="userSpaceOnUse" x1="254" y1="233.5" x2="254" y2="-105.166656" gradientTransform="matrix(0.0468795,0,0,0.0468795,-0.0000013593,10.079087)">
<stop offset="0" style="stop-color:rgb(34.509805%,34.509805%,34.509805%);stop-opacity:0;"/>
<stop offset="1" style="stop-color:rgb(98.039216%,98.039216%,98.039216%);stop-opacity:0.196078;"/>
</linearGradient>
</defs>
<g id="surface1">
<path style=" stroke:none;fill-rule:nonzero;fill:url(#linear0);" d="M 2.976562 21.027344 L 20.839844 21.027344 L 20.839844 22.019531 L 2.976562 22.019531 Z M 2.976562 21.027344 "/>
<path style=" stroke:none;fill-rule:nonzero;fill:url(#radial0);" d="M 20.839844 21.027344 L 22.824219 21.027344 L 22.824219 20.03125 L 20.839844 20.03125 Z M 20.839844 21.027344 "/>
<path style=" stroke:none;fill-rule:nonzero;fill:url(#radial1);" d="M 2.976562 21.027344 L 0.992188 21.027344 L 0.992188 22.019531 L 2.976562 22.019531 Z M 2.976562 21.027344 "/>
<path style=" stroke:none;fill-rule:nonzero;fill:url(#radial2);" d="M 2.976562 21.027344 L 0.992188 21.027344 L 0.992188 20.03125 L 2.976562 20.03125 Z M 2.976562 21.027344 "/>
<path style=" stroke:none;fill-rule:nonzero;fill:url(#radial3);" d="M 20.839844 21.027344 L 22.824219 21.027344 L 22.824219 22.019531 L 20.839844 22.019531 Z M 20.839844 21.027344 "/>
<path style=" stroke:none;fill-rule:nonzero;fill:rgb(61.176473%,80.000001%,39.607844%);fill-opacity:1;" d="M 5.457031 3.164062 L 21.582031 3.164062 C 22.128906 3.164062 22.574219 3.609375 22.574219 4.15625 L 22.574219 7.878906 C 22.574219 8.425781 22.128906 8.871094 21.582031 8.871094 L 5.457031 8.871094 C 4.910156 8.871094 4.464844 8.425781 4.464844 7.878906 L 4.464844 4.15625 C 4.464844 3.609375 4.910156 3.164062 5.457031 3.164062 Z M 5.457031 3.164062 "/>
<path style=" stroke:none;fill-rule:nonzero;fill:url(#linear1);" d="M 5.457031 3.164062 L 21.582031 3.164062 C 22.128906 3.164062 22.574219 3.609375 22.574219 4.15625 L 22.574219 7.878906 C 22.574219 8.425781 22.128906 8.871094 21.582031 8.871094 L 5.457031 8.871094 C 4.910156 8.871094 4.464844 8.425781 4.464844 7.878906 L 4.464844 4.15625 C 4.464844 3.609375 4.910156 3.164062 5.457031 3.164062 Z M 5.457031 3.164062 "/>
<path style=" stroke:none;fill-rule:nonzero;fill:rgb(100%,100%,100%);fill-opacity:0.392157;" d="M 5.457031 3.230469 C 4.90625 3.230469 4.464844 3.671875 4.464844 4.222656 L 4.464844 4.34375 C 4.464844 3.796875 4.90625 3.351562 5.457031 3.351562 L 21.582031 3.351562 C 22.132812 3.351562 22.574219 3.796875 22.574219 4.34375 L 22.574219 4.222656 C 22.574219 3.671875 22.132812 3.230469 21.582031 3.230469 Z M 5.457031 3.230469 "/>
<path style=" stroke:none;fill-rule:nonzero;fill:rgb(12.941177%,12.941177%,12.941177%);fill-opacity:1;" d="M 5.457031 3.09375 C 4.871094 3.09375 4.394531 3.570312 4.394531 4.15625 L 4.394531 7.878906 C 4.394531 8.464844 4.871094 8.941406 5.457031 8.941406 L 21.582031 8.941406 C 22.167969 8.941406 22.644531 8.464844 22.644531 7.878906 L 22.644531 4.15625 C 22.644531 3.570312 22.167969 3.09375 21.582031 3.09375 Z M 5.457031 3.234375 L 21.582031 3.234375 C 22.09375 3.234375 22.503906 3.644531 22.503906 4.15625 L 22.503906 7.878906 C 22.503906 8.390625 22.09375 8.800781 21.582031 8.800781 L 5.457031 8.800781 C 4.945312 8.800781 4.535156 8.390625 4.535156 7.878906 L 4.535156 4.15625 C 4.535156 3.644531 4.945312 3.234375 5.457031 3.234375 Z M 5.457031 3.234375 "/>
<path style=" stroke:none;fill-rule:nonzero;fill:rgb(68.235296%,83.529413%,50.588238%);fill-opacity:1;" d="M 1.984375 5.148438 C 1.433594 5.148438 0.992188 5.589844 0.992188 6.140625 L 0.992188 20.03125 C 0.992188 20.582031 1.433594 21.027344 1.984375 21.027344 L 21.832031 21.027344 C 22.378906 21.027344 22.824219 20.582031 22.824219 20.03125 L 22.824219 7.628906 L 9.425781 7.628906 C 8.878906 7.628906 8.433594 7.1875 8.433594 6.636719 L 8.433594 5.148438 Z M 1.984375 5.148438 "/>
<path style=" stroke:none;fill-rule:nonzero;fill:url(#linear2);" d="M 1.984375 5.148438 C 1.433594 5.148438 0.992188 5.589844 0.992188 6.140625 L 0.992188 20.03125 C 0.992188 20.582031 1.433594 21.027344 1.984375 21.027344 L 21.832031 21.027344 C 22.378906 21.027344 22.824219 20.582031 22.824219 20.03125 L 22.824219 7.628906 L 9.425781 7.628906 C 8.878906 7.628906 8.433594 7.1875 8.433594 6.636719 L 8.433594 5.148438 Z M 1.984375 5.148438 "/>
<path style=" stroke:none;fill-rule:nonzero;fill:rgb(0%,0%,0%);fill-opacity:0.196078;" d="M 1.984375 21.027344 C 1.433594 21.027344 0.992188 20.582031 0.992188 20.03125 L 0.992188 19.910156 C 0.992188 20.457031 1.433594 20.902344 1.984375 20.902344 L 21.832031 20.902344 C 22.378906 20.902344 22.824219 20.457031 22.824219 19.910156 L 22.824219 20.03125 C 22.824219 20.582031 22.378906 21.027344 21.832031 21.027344 Z M 1.984375 21.027344 "/>
<path style=" stroke:none;fill-rule:nonzero;fill:rgb(100%,100%,100%);fill-opacity:0.392157;" d="M 1.984375 5.214844 C 1.433594 5.214844 0.992188 5.65625 0.992188 6.207031 L 0.992188 6.328125 C 0.992188 5.78125 1.433594 5.335938 1.984375 5.335938 L 8.433594 5.335938 L 8.433594 5.214844 Z M 1.984375 5.214844 "/>
<path style=" stroke:none;fill-rule:nonzero;fill:rgb(100%,100%,100%);fill-opacity:0.392157;" d="M 9.363281 7.757812 C 8.816406 7.757812 8.371094 7.3125 8.371094 6.761719 L 8.371094 6.640625 C 8.371094 7.1875 8.816406 7.632812 9.363281 7.632812 L 22.824219 7.632812 L 22.824219 7.757812 Z M 9.363281 7.757812 "/>
<path style=" stroke:none;fill-rule:nonzero;fill:rgb(12.941177%,12.941177%,12.941177%);fill-opacity:1;" d="M 1.984375 5.078125 C 1.398438 5.078125 0.921875 5.554688 0.921875 6.140625 L 0.921875 20.03125 C 0.921875 20.621094 1.398438 21.097656 1.984375 21.097656 L 21.832031 21.097656 C 22.417969 21.097656 22.894531 20.621094 22.894531 20.03125 L 22.894531 7.488281 L 9.425781 7.488281 C 8.914062 7.488281 8.503906 7.078125 8.503906 6.566406 L 8.503906 5.078125 Z M 1.984375 5.21875 L 8.363281 5.21875 L 8.363281 6.566406 C 8.363281 7.15625 8.839844 7.628906 9.425781 7.628906 L 22.753906 7.628906 L 22.753906 20.03125 C 22.753906 20.546875 22.34375 20.957031 21.832031 20.957031 L 1.984375 20.957031 C 1.472656 20.957031 1.0625 20.546875 1.0625 20.03125 L 1.0625 6.140625 C 1.0625 5.628906 1.472656 5.21875 1.984375 5.21875 Z M 1.984375 5.21875 "/>
<path style=" stroke:none;fill-rule:nonzero;fill:rgb(54.509807%,76.47059%,29.019609%);fill-opacity:1;" d="M 9.425781 10.109375 C 8.878906 10.109375 8.433594 10.554688 8.433594 11.101562 L 8.433594 13.335938 L 9.921875 13.335938 L 9.921875 13.085938 C 9.921875 12.8125 10.144531 12.589844 10.417969 12.589844 C 10.695312 12.589844 10.914062 12.8125 10.914062 13.085938 L 10.914062 13.335938 L 12.898438 13.335938 L 12.898438 13.085938 C 12.898438 12.8125 13.121094 12.589844 13.394531 12.589844 C 13.671875 12.589844 13.890625 12.8125 13.890625 13.085938 L 13.890625 13.335938 L 15.378906 13.335938 L 15.378906 11.101562 C 15.378906 10.554688 14.9375 10.109375 14.386719 10.109375 Z M 8.433594 13.832031 L 8.433594 16.0625 C 8.433594 16.613281 8.878906 17.054688 9.425781 17.054688 L 14.386719 17.054688 C 14.9375 17.054688 15.378906 16.613281 15.378906 16.0625 L 15.378906 13.832031 L 13.890625 13.832031 L 13.890625 14.078125 C 13.890625 14.355469 13.671875 14.574219 13.394531 14.574219 C 13.121094 14.574219 12.898438 14.355469 12.898438 14.078125 L 12.898438 13.832031 L 10.914062 13.832031 L 10.914062 14.078125 C 10.914062 14.355469 10.695312 14.574219 10.417969 14.574219 C 10.144531 14.574219 9.921875 14.355469 9.921875 14.078125 L 9.921875 13.832031 Z M 8.433594 13.832031 "/>
<path style=" stroke:none;fill-rule:nonzero;fill:rgb(0%,0%,0%);fill-opacity:0.235294;" d="M 9.425781 10.109375 C 8.878906 10.109375 8.433594 10.554688 8.433594 11.101562 L 8.433594 13.335938 L 8.445312 13.335938 L 8.445312 11.28125 C 8.445312 10.730469 8.890625 10.289062 9.4375 10.289062 L 14.402344 10.289062 C 14.894531 10.289062 15.304688 10.648438 15.378906 11.121094 L 15.378906 11.101562 C 15.378906 10.554688 14.9375 10.109375 14.386719 10.109375 Z M 10.914062 13.15625 L 10.914062 13.335938 L 10.925781 13.335938 L 10.925781 13.265625 C 10.925781 13.226562 10.921875 13.191406 10.914062 13.15625 Z M 13.890625 13.15625 L 13.890625 13.335938 L 13.90625 13.335938 L 13.90625 13.265625 C 13.90625 13.226562 13.898438 13.191406 13.890625 13.15625 Z M 8.433594 13.832031 L 8.433594 16.0625 C 8.433594 16.117188 8.4375 16.171875 8.445312 16.222656 L 8.445312 14.011719 L 9.921875 14.011719 L 9.921875 13.832031 Z M 10.914062 13.832031 L 10.914062 14.078125 C 10.914062 14.355469 10.695312 14.574219 10.417969 14.574219 C 10.183594 14.574219 9.984375 14.410156 9.933594 14.191406 L 9.933594 14.257812 C 9.933594 14.53125 10.15625 14.753906 10.429688 14.753906 C 10.707031 14.753906 10.925781 14.53125 10.925781 14.257812 L 10.925781 14.011719 L 12.898438 14.011719 L 12.898438 13.832031 Z M 13.890625 13.832031 L 13.890625 14.078125 C 13.890625 14.355469 13.671875 14.574219 13.394531 14.574219 C 13.160156 14.574219 12.960938 14.410156 12.914062 14.191406 L 12.914062 14.257812 C 12.914062 14.53125 13.132812 14.753906 13.410156 14.753906 C 13.683594 14.753906 13.90625 14.53125 13.90625 14.257812 L 13.90625 14.011719 L 15.378906 14.011719 L 15.378906 13.832031 Z M 13.890625 13.832031 "/>
<path style=" stroke:none;fill-rule:nonzero;fill:rgb(100%,100%,100%);fill-opacity:0.392157;" d="M 10.417969 12.597656 C 10.144531 12.597656 9.921875 12.820312 9.921875 13.09375 L 9.921875 13.273438 C 9.921875 13 10.144531 12.777344 10.417969 12.777344 C 10.695312 12.777344 10.914062 13 10.914062 13.273438 L 10.914062 13.09375 C 10.914062 12.820312 10.695312 12.597656 10.417969 12.597656 Z M 13.394531 12.597656 C 13.121094 12.597656 12.898438 12.820312 12.898438 13.09375 L 12.898438 13.273438 C 12.898438 13 13.121094 12.777344 13.394531 12.777344 C 13.671875 12.777344 13.890625 13 13.890625 13.273438 L 13.890625 13.09375 C 13.890625 12.820312 13.671875 12.597656 13.394531 12.597656 Z M 8.433594 13.339844 L 8.433594 13.523438 L 9.921875 13.523438 L 9.921875 13.339844 Z M 10.914062 13.339844 L 10.914062 13.523438 L 12.898438 13.523438 L 12.898438 13.339844 Z M 13.890625 13.339844 L 13.890625 13.523438 L 15.378906 13.523438 L 15.378906 13.339844 Z M 8.433594 16.070312 L 8.433594 16.253906 C 8.433594 16.800781 8.878906 17.246094 9.425781 17.246094 L 14.386719 17.246094 C 14.9375 17.246094 15.378906 16.800781 15.378906 16.253906 L 15.378906 16.070312 C 15.378906 16.621094 14.9375 17.0625 14.386719 17.0625 L 9.425781 17.0625 C 8.878906 17.0625 8.433594 16.621094 8.433594 16.070312 Z M 8.433594 16.070312 "/>
<path style="fill:none;stroke-width:11.338583;stroke-linecap:round;stroke-linejoin:round;stroke:rgb(12.941177%,12.941177%,12.941177%);stroke-opacity:1;stroke-miterlimit:4;" d="M 759.927471 815.040321 C 715.83719 815.040321 679.935105 850.942406 679.935105 895.032686 L 679.935105 1075.172973 L 799.923653 1075.172973 L 799.923653 1055.017417 C 799.923653 1032.972277 817.874696 1015.021234 839.919836 1015.021234 C 862.279906 1015.021234 879.916018 1032.972277 879.916018 1055.017417 L 879.916018 1075.172973 L 1039.900749 1075.172973 L 1039.900749 1055.017417 C 1039.900749 1032.972277 1057.851792 1015.021234 1079.896932 1015.021234 C 1102.257002 1015.021234 1119.893114 1032.972277 1119.893114 1055.017417 L 1119.893114 1075.172973 L 1239.881662 1075.172973 L 1239.881662 895.032686 C 1239.881662 850.942406 1204.294508 815.040321 1159.889297 815.040321 Z M 679.935105 1115.169156 L 679.935105 1294.994513 C 679.935105 1339.399723 715.83719 1374.986878 759.927471 1374.986878 L 1159.889297 1374.986878 C 1204.294508 1374.986878 1239.881662 1339.399723 1239.881662 1294.994513 L 1239.881662 1115.169156 L 1119.893114 1115.169156 L 1119.893114 1135.009782 C 1119.893114 1157.369853 1102.257002 1175.005965 1079.896932 1175.005965 C 1057.851792 1175.005965 1039.900749 1157.369853 1039.900749 1135.009782 L 1039.900749 1115.169156 L 879.916018 1115.169156 L 879.916018 1135.009782 C 879.916018 1157.369853 862.279906 1175.005965 839.919836 1175.005965 C 817.874696 1175.005965 799.923653 1157.369853 799.923653 1135.009782 L 799.923653 1115.169156 Z M 679.935105 1115.169156 " transform="matrix(0.0124035,0,0,0.0124035,0,0)"/>
</g>
</svg>

<svg xmlns="http://www.w3.org/2000/svg" width="24" height="24"><defs><linearGradient id="a" gradientUnits="userSpaceOnUse" x1="254" y1="233.5" x2="254" y2="254.667" gradientTransform="matrix(.04688 0 0 .04688 0 10.08)"><stop offset="0" stop-opacity=".275"/><stop offset="1" stop-opacity="0"/></linearGradient><radialGradient id="b" gradientUnits="userSpaceOnUse" cx="450.909" cy="189.579" fx="450.909" fy="189.579" r="21.167" gradientTransform="matrix(0 -.0586 -.10548 0 40.586 47.697)"><stop offset="0" stop-opacity=".314"/><stop offset=".222" stop-opacity=".275"/><stop offset="1" stop-opacity="0"/></radialGradient><radialGradient id="c" gradientUnits="userSpaceOnUse" cx="450.909" cy="189.579" fx="450.909" fy="189.579" r="21.167" gradientTransform="matrix(0 .0586 .10548 0 -16.772 -5.646)"><stop offset="0" stop-opacity=".314"/><stop offset=".222" stop-opacity=".275"/><stop offset="1" stop-opacity="0"/></radialGradient><radialGradient id="d" gradientUnits="userSpaceOnUse" cx="450.909" cy="189.579" fx="450.909" fy="189.579" r="21.167" gradientTransform="matrix(0 -.0586 .10548 0 -16.772 47.697)"><stop offset="0" stop-opacity=".314"/><stop offset=".222" stop-opacity=".275"/><stop offset="1" stop-opacity="0"/></radialGradient><radialGradient id="e" gradientUnits="userSpaceOnUse" cx="450.909" cy="189.579" fx="450.909" fy="189.579" r="21.167" gradientTransform="matrix(0 .0586 -.10548 0 40.586 -5.646)"><stop offset="0" stop-opacity=".314"/><stop offset=".222" stop-opacity=".275"/><stop offset="1" stop-opacity="0"/></radialGradient><linearGradient id="f" gradientUnits="userSpaceOnUse" x1="254" y1="-147.5" x2="254" y2="-31.083" gradientTransform="matrix(.04688 0 0 .04688 0 10.08)"><stop offset="0" stop-color="#a4a4a4" stop-opacity="0"/><stop offset="1" stop-color="#fff" stop-opacity=".196"/></linearGradient><linearGradient id="g" gradientUnits="userSpaceOnUse" x1="254" y1="233.5" x2="254" y2="-105.167" gradientTransform="matrix(.04688 0 0 .04688 0 10.08)"><stop offset="0" stop-color="#585858" stop-opacity="0"/><stop offset="1" stop-color="#fafafa" stop-opacity=".196"/></linearGradient><linearGradient id="h" gradientUnits="userSpaceOnUse" x1="254" y1="-147.5" x2="254" y2="233.5" gradientTransform="matrix(.04688 0 0 .04688 0 10.08)"><stop offset="0" stop-color="#a4a4a4" stop-opacity="0"/><stop offset="1" stop-color="#fff" stop-opacity=".196"/></linearGradient></defs><path d="M2.977 21.027H20.84v.993H2.977zm0 0" fill="url(#a)"/><path d="M20.84 21.027h1.984v-.996H20.84zm0 0" fill="url(#b)"/><path d="M2.977 21.027H.992v.993h1.985zm0 0" fill="url(#c)"/><path d="M2.977 21.027H.992v-.996h1.985zm0 0" fill="url(#d)"/><path d="M20.84 21.027h1.984v.993H20.84zm0 0" fill="url(#e)"/><path d="M5.457 3.164h16.125c.547 0 .992.445.992.992V7.88a.994.994 0 0 1-.992.992H5.457a.994.994 0 0 1-.992-.992V4.156c0-.547.445-.992.992-.992zm0 0" fill="#7cb342"/><path d="M5.457 3.164h16.125c.547 0 .992.445.992.992V7.88a.994.994 0 0 1-.992.992H5.457a.994.994 0 0 1-.992-.992V4.156c0-.547.445-.992.992-.992zm0 0" fill="url(#f)"/><path d="M5.457 3.164a.989.989 0 0 0-.992.992v.125c0-.55.441-.992.992-.992h16.125c.55 0 .992.441.992.992v-.125a.989.989 0 0 0-.992-.992zm0 0" fill="#e6e6e6" fill-opacity=".588"/><path d="M5.457 3.094c-.586 0-1.062.476-1.062 1.062V7.88c0 .586.476 1.062 1.062 1.062h16.125c.586 0 1.063-.476 1.063-1.062V4.156c0-.586-.477-1.062-1.063-1.062zm0 .14h16.125c.512 0 .922.41.922.922V7.88c0 .512-.41.922-.922.922H5.457a.919.919 0 0 1-.922-.922V4.156c0-.511.41-.922.922-.922zm0 0" fill="#212121"/><path d="M1.984 5.148a.989.989 0 0 0-.992.993v13.89c0 .551.442.996.992.996h19.848a.994.994 0 0 0 .992-.996V7.63H9.426a.991.991 0 0 1-.992-.992V5.148zm0 0" fill="#9ccc65"/><path d="M1.984 5.148a.989.989 0 0 0-.992.993v13.89c0 .551.442.996.992.996h19.848a.994.994 0 0 0 .992-.996V7.63H9.426a.991.991 0 0 1-.992-.992V5.148zm0 0" fill="url(#g)"/><path d="M1.984 21.027a.992.992 0 0 1-.992-.996v-.12c0 .546.442.991.992.991h19.848a.994.994 0 0 0 .992-.992v.121c0 .551-.445.996-.992.996zm0 0" fill-opacity=".196"/><path d="M1.984 5.148a.989.989 0 0 0-.992.993v.125c0-.551.442-.993.992-.993h6.45v-.125zm0 0M9.363 7.691a.991.991 0 0 1-.992-.992v-.125c0 .551.445.996.992.992h13.461v.125zm0 0" fill="#e6e6e6" fill-opacity=".937"/><path d="M1.984 5.078c-.586 0-1.062.477-1.062 1.063v13.89c0 .59.476 1.067 1.062 1.067h19.848c.586 0 1.063-.477 1.063-1.067V7.488H9.425a.919.919 0 0 1-.921-.922V5.078zm0 .14h6.38v1.348c0 .59.476 1.063 1.062 1.063h13.328V20.03a.92.92 0 0 1-.922.926H1.984a.92.92 0 0 1-.921-.926V6.141c0-.512.41-.922.921-.922zm0 0" fill="#212121"/><path d="M9.426 10.11a.994.994 0 0 0-.992.992v1.984h.992v.992h-.992v1.985c0 .55.445.992.992.992h4.96c.552 0 .993-.442.993-.992v-1.985h-.992v-.992h.992v-1.984a.991.991 0 0 0-.992-.993zm1.488 2.976h1.984v.992h-1.984zm0 0" fill="#7cb342"/><path d="M9.426 10.11a.994.994 0 0 0-.992.992v1.984h.992v.992h-.992v1.985c0 .55.445.992.992.992h4.96c.552 0 .993-.442.993-.992v-1.985h-.992v-.992h.992v-1.984a.991.991 0 0 0-.992-.993zm1.488 2.976h1.984v.992h-1.984zm0 0" fill="url(#h)"/><path d="M9.426 10.04c-.586 0-1.063.476-1.063 1.062v2.054h.992v.852h-.992v2.055c0 .59.477 1.062 1.063 1.062h4.96c.59 0 1.063-.473 1.063-1.063v-2.054h-.992v-.852h.992v-2.054c0-.586-.472-1.063-1.062-1.063zm0 .14h4.96c.512 0 .923.41.923.922v1.914h-.993v1.132h.993v1.915c0 .511-.41.921-.922.921H9.426a.919.919 0 0 1-.922-.922v-1.914h.992v-1.132h-.992v-1.914c0-.512.41-.922.922-.922zm1.418 2.836v1.132h2.125v-1.132zm.14.14h1.844v.852h-1.844zm0 0" fill="#212121"/></svg>
